!!!!SEGMENT: pl-sa--172-a-v-2--008_szczurowski-jacek--msza-swiateczna-et-incarnatus.krn
!!!cenid: 17xx:268
!!!COM: Szczurowski, Jacek
!!!COM-rismid: pe30017605
!!!CDT: 1716/08/15-~1733
!!!CNT: Polish
!!!OPR: Msza świąteczna
!!!OTL: Et Incarnatus
!!!OMV: 008
!!!PDT:
!!!AGN: Sacred; Mass
!!!SMS-siglum: PL-SA
!!!SMS-shelfmark: 172/A V 2
!!!SMS-shelfwork: 001-008 M
!!!NIFC-rismid:
!!!URL-scan: http://bc.bdsandomierz.pl/dlibra/publication/1506/edition/1474/content
!!!ONB-nifc: UWAGA: części Mszy: Kyrie, Christe, Et in terra, Laudamus, Qui tollis, Quoniam, Patrem, Et Incarnatus, Ressurexit, Sanctus, Osanna, Benedictus, Agnus Dei
**kern	**fba	**kern	**dynam	**kern	**dynam	**kern	**text	**kern	**text	**kern	**kern
*part7	*	*part6	*part6	*part5	*part5	*part4	*part4	*part3	*part3	*part2	*part1
*staff7	*	*staff6	*	*staff5	*	*staff4	*staff4	*staff3	*staff3	*staff2	*staff1
*I"Organo	*	*I"Violino 2di	*	*I"Violino. Primo	*	*I"Soprano 2.do:	*	*I"Soprano Primo.	*	*I"Corno 2.do Ex D:	*I"Corno Primo ex D:
*I'Org	*	*I'Vl II	*	*I'Vl I	*	*I'S II	*	*I'S I	*	*I'Cor II	*I'Cor I
*clefF4	*	*clefG2	*	*clefG2	*	*clefC1	*	*clefC1	*	*clefG2	*clefG2
*	*	*	*	*	*	*	*	*	*	*ITrd6c10	*ITrd6c10
*k[b-]	*	*k[b-]	*	*k[b-]	*	*k[b-]	*	*k[b-]	*	*k[f#c#]	*k[f#c#]
*F:	*	*F:	*	*F:	*	*F:	*	*F:	*	*F:	*F:
*	*	*	*	*	*	*	*	*	*	*	*
*M3/4	*	*M3/4	*	*M3/4	*	*M3/4	*	*M3/4	*	*M3/4	*M3/4
=	=	=	=	=	=	=	=	=	=	=	=
!	!	!	!	!	!	!	!	!LO:TX:t=P:problem=znak repetycji na początku	!	!	!
!LO:TX:i:a:B:t=Andante	!	!LO:TX:i:a:B:t=Andante	!	!LO:TX:a:i:B:t=Andante	!	!LO:TX:a:t=P:problem:brak przedtaktu	!	!	!	!LO:TX:a:B:t=Tacet	!LO:TX:a:B:t=Tacet
8r	.	8r	.	8cc\	.	8r	.	8r	.	8ryy	8ryy
=1	=1	=1	=1	=1	=1	=1	=1	=1	=1	=1	=1
!	!	!	!	!	!	!LO:N:vis=00	!	!LO:N:vis=00	!	!	!
!	!	!	!	!	!	!LO:TX:B:a:t=15	!	!LO:TX:B:a:t=15	!	!	!
4F\	.	8.a/L	.	8.ff\L	.	0.r	.	0.r	.	2.ryy	2.ryy
.	.	16a/K	.	16cc\K	.	.	.	.	.	.	.
4FF/	.	8.a/	.	8.cc\	.	.	.	.	.	.	.
.	.	16a/K	.	16cc\Jk	.	.	.	.	.	.	.
!	!	!	!	!LO:LB:g=original	!	!	!	!	!	!	!
4FF/	.	8.a/	.	8.cc\L	.	.	.	.	.	.	.
.	.	16a/Jk	.	16cc\Jk	.	.	.	.	.	.	.
=2	=2	=2	=2	=2	=2	=2	=2	=2	=2	=2	=2
4FF/	4	8.b-/L	.	8.dd\L	.	.	.	.	.	2.ryy	2.ryy
.	.	16b-/K	.	16dd\K	.	.	.	.	.	.	.
4FF/	.	8.b-/	.	8.dd\	.	.	.	.	.	.	.
.	.	16b-/K	.	16dd\K	.	.	.	.	.	.	.
4FF/	.	8.b-/	.	8.dd\	.	.	.	.	.	.	.
.	.	16b-/Jk	.	16dd\Jk	.	.	.	.	.	.	.
=3	=3	=3	=3	=3	=3	=3	=3	=3	=3	=3	=3
4FF/	3	8.a/L	.	8.cc\L	.	.	.	.	.	2.ryy	2.ryy
.	.	16a/K	.	16cc\K	.	.	.	.	.	.	.
4FF/	.	8.a/	.	8.cc\	.	.	.	.	.	.	.
.	.	16a/K	.	16cc\K	.	.	.	.	.	.	.
4FF/	.	8.a/	.	8.cc\	.	.	.	.	.	.	.
.	.	16a/Jk	.	16cc\Jk	.	.	.	.	.	.	.
=4	=4	=4	=4	=4	=4	=4	=4	=4	=4	=4	=4
4C/	7	8.g/L	.	8.b-/L	.	.	.	.	.	2.ryy	2.ryy
.	.	16g/K	.	16b-/K	.	.	.	.	.	.	.
4C/	.	8.g/	.	8.b-/	.	.	.	.	.	.	.
.	.	16g/K	.	16b-/K	.	.	.	.	.	.	.
4C/	.	8.g/	.	8.b-/	.	.	.	.	.	.	.
.	.	16g/Jk	.	16b-/Jk	.	.	.	.	.	.	.
=5	=5	=5	=5	=5	=5	=5	=5	=5	=5	=5	=5
!	!	!	!	!	!	!LO:N:vis=00	!	!LO:N:vis=00	!	!	!
4F\	.	8.g/L	.	8.b-/L	.	0.r	.	0.r	.	2.ryy	2.ryy
.	.	16f/Jk	.	16a/Jk	.	.	.	.	.	.	.
4FF/	.	4f/	.	4a/	.	.	.	.	.	.	.
4FF/	.	8r	.	8r	.	.	.	.	.	.	.
.	.	8a/	.	8cc\	.	.	.	.	.	.	.
!	!	!LO:LB:g=original	!	!	!	!	!	!	!	!	!
=6	=6	=6	=6	=6	=6	=6	=6	=6	=6	=6	=6
4FF/	4	8.b-/L	.	8.dd\L	.	.	.	.	.	2.ryy	2.ryy
.	.	16b-/K	.	16dd\K	.	.	.	.	.	.	.
4FF/	.	8.b-/	.	8.dd\	.	.	.	.	.	.	.
.	.	16b-/K	.	16dd\K	.	.	.	.	.	.	.
4FF/	.	8.b-/	.	8.dd\	.	.	.	.	.	.	.
.	.	16b-/Jk	.	16dd\Jk	.	.	.	.	.	.	.
=7	=7	=7	=7	=7	=7	=7	=7	=7	=7	=7	=7
*	*	*	*	*Xtuplet	*	*	*	*	*	*	*
!	!	!	!	!LO:TX:a:t=P:problem:triole oznaczone łukiem w t. 7	!	!	!	!	!	!	!
(>4F\	.	4b-/	.	(>12bb-\L	.	.	.	.	.	2.ryy	2.ryy
.	.	.	.	12ff\	.	.	.	.	.	.	.
.	.	.	.	12dd\J)	.	.	.	.	.	.	.
4F\	.	4b-/	.	(>12ff\L	.	.	.	.	.	.	.
.	.	.	.	12dd\	.	.	.	.	.	.	.
.	.	.	.	12b-\J)	.	.	.	.	.	.	.
4F\)	.	4b-/	.	(>12dd\L	.	.	.	.	.	.	.
.	.	.	.	12b-\	.	.	.	.	.	.	.
.	.	.	.	12f\J)	.	.	.	.	.	.	.
=8	=8	=8	=8	=8	=8	=8	=8	=8	=8	=8	=8
4FF/	3	8.a/L	.	8.cc\L	.	.	.	.	.	2.ryy	2.ryy
.	.	16a/K	.	16cc\K	.	.	.	.	.	.	.
4FF/	.	8.a/	.	8.cc\	.	.	.	.	.	.	.
.	.	16a/K	.	16cc\K	.	.	.	.	.	.	.
4FF/	.	8.a/	.	8.cc\	.	.	.	.	.	.	.
.	.	16a/Jk	.	16cc\Jk	.	.	.	.	.	.	.
=9	=9	=9	=9	=9	=9	=9	=9	=9	=9	=9	=9
!	!	!	!	!LO:TX:a:t=P:problem:triole oznaczone łukiem w t. 9	!	!	!	!	!	!	!
!	!	!	!	!	!	!LO:N:vis=00	!	!LO:N:vis=00	!	!	!
4F\	3	4a/	.	(>12aa\L	.	0.r	.	0.rcc	.	2.ryy	2.ryy
.	.	.	.	12ff\	.	.	.	.	.	.	.
.	.	.	.	12cc\J)	.	.	.	.	.	.	.
4F\	.	4a/	.	(>12ff\L	.	.	.	.	.	.	.
.	.	.	.	12cc\	.	.	.	.	.	.	.
.	.	.	.	12a\J)	.	.	.	.	.	.	.
4F\	.	4a/	.	(<12cc/L	.	.	.	.	.	.	.
.	.	.	.	12a/	.	.	.	.	.	.	.
.	.	.	.	12f/J)	.	.	.	.	.	.	.
=10	=10	=10	=10	=10	=10	=10	=10	=10	=10	=10	=10
4C/	7	8.g/L	.	8.b-/L	.	.	.	.	.	2.ryy	2.ryy
.	.	16g/K	.	16b-/K	.	.	.	.	.	.	.
4C/	.	8.g/	.	8.b-/	.	.	.	.	.	.	.
.	.	16g/K	.	16b-/Jk	.	.	.	.	.	.	.
!	!	!	!	!LO:LB:g=original	!	!	!	!	!	!	!
4C/	.	8.g/	.	8.b-/L	.	.	.	.	.	.	.
.	.	16g/Jk	.	16b-/Jk	.	.	.	.	.	.	.
=11	=11	=11	=11	=11	=11	=11	=11	=11	=11	=11	=11
!	!	!	!	!LO:TX:a:t=P:problem:triole oznaczone łukiem w t. 11	!	!	!	!	!	!	!
4C/	.	4e/	.	(>12gg\L	.	.	.	.	.	2.ryy	2.ryy
.	.	.	.	12ee\	.	.	.	.	.	.	.
.	.	.	.	12cc\J)	.	.	.	.	.	.	.
4C/	.	4g/	.	(>12ee\L	.	.	.	.	.	.	.
.	.	.	.	12b-\	.	.	.	.	.	.	.
.	.	.	.	12g\J)	.	.	.	.	.	.	.
4C/	.	8e/L	.	16b-/LL	.	.	.	.	.	.	.
.	.	.	.	16g/	.	.	.	.	.	.	.
.	.	16f/L	.	16a/	.	.	.	.	.	.	.
.	.	16a/JJ	.	16cc/JJ	.	.	.	.	.	.	.
=12	=12	=12	=12	=12	=12	=12	=12	=12	=12	=12	=12
!	!	!	!	!LO:TX:a:t=P:problem:niejednoznaczny zapis - ozdobnik nad nutą?	!	!	!	!	!	!	!
4C/	4	4f/	.	4a/	.	.	.	.	.	2.ryy	2.ryy
4C/	3	4e/	.	4g/	.	.	.	.	.	.	.
4C/	.	8r	.	8r	.	.	.	.	.	.	.
.	.	8a/	.	8cc\	.	.	.	.	.	.	.
!LO:LB:g=original	!	!	!	!	!	!	!	!	!	!	!
=13	=13	=13	=13	=13	=13	=13	=13	=13	=13	=13	=13
!	!	!	!	!LO:TX:a:t=P:problem:triole oznaczone łukiem w tt. 13-14	!	!	!	!	!	!	!
!	!	!	!	!	!	!LO:N:vis=0	!	!LO:N:vis=0	!	!	!
4C/	.	4g/	.	(>12dd\L	.	1.r	.	1.ree	.	2.ryy	2.ryy
.	.	.	.	12b-\	.	.	.	.	.	.	.
.	.	.	.	12g\J)	.	.	.	.	.	.	.
4C/	.	8.f/L	.	(<12a/L	.	.	.	.	.	.	.
.	.	.	.	12cc/	.	.	.	.	.	.	.
.	.	.	.	12ff/J)	.	.	.	.	.	.	.
.	.	16a/Jk	.	.	.	.	.	.	.	.	.
4C/	.	4e/	.	(<12b-/L	.	.	.	.	.	.	.
.	.	.	.	12g/	.	.	.	.	.	.	.
.	.	.	.	12e/J)	.	.	.	.	.	.	.
=14	=14	=14	=14	=14	=14	=14	=14	=14	=14	=14	=14
4C/	.	4f/	.	(<12f/L	.	.	.	.	.	2.ryy	2.ryy
.	.	.	.	12a/	.	.	.	.	.	.	.
.	.	.	.	12cc/J)	.	.	.	.	.	.	.
4C/	.	4e/	.	(>12dd\L	.	.	.	.	.	.	.
.	.	.	.	12b-\	.	.	.	.	.	.	.
.	.	.	.	12g\J)	.	.	.	.	.	.	.
4C/	.	8.f/L	.	(>12a\L	.	.	.	.	.	.	.
.	.	.	.	12cc\	.	.	.	.	.	.	.
.	.	.	.	12ff\J)	.	.	.	.	.	.	.
.	.	16a/Jk	.	.	.	.	.	.	.	.	.
=15	=15	=15	=15	=15	=15	=15	=15	=15	=15	=15	=15
8FF/L	.	8f/L	.	16a/LL	.	2.r	.	2.ree	.	2.ryy	2.ryy
.	.	.	.	16f/	.	.	.	.	.	.	.
8BB-/J	.	8g/J	.	16b-/	.	.	.	.	.	.	.
.	.	.	.	16g/JJ	.	.	.	.	.	.	.
4C/	.	4f/	.	4f/	.	.	.	.	.	.	.
!	!	!	!	!LO:TX:a:t=P:problem:niejednoznaczny zapis - ozdobnik nad nutą?	!	!	!	!	!	!	!
4CC/	.	4e/	.	4gT/	.	.	.	.	.	.	.
!	!	!LO:LB:g=original	!	!	!	!	!	!	!	!	!
=16	=16	=16	=16	=16	=16	=16	=16	=16	=16	=16	=16
!	!	!	!	!	!	!LO:TX:i:a:B:t=Andante	!	!	!	!	!
8F\L	.	2A/	.	2f/	.	4r	.	4r	.	2.ryy	2.ryy
8C\J	.	.	.	.	.	.	.	.	.	.	.
4FF/	.	.	.	.	.	4r	.	4r	.	.	.
!	!	!	!	!	!	!	!	!LO:LB:g=original	!	!	!
4r	.	8r	.	8r	.	4a\	Et	4cc\	Et	.	.
!	!	!	!LO:HP:a:i:t=pio:	!	!	!	!	!	!	!	!
!	!	!	!LO:DY:a	!	!	!	!	!	!	!	!
.	.	8cc\	p	8cc\	.	.	.	.	.	.	.
=17	=17	=17	=17	=17	=17	=17	=17	=17	=17	=17	=17
!	!	!	!	!	!LO:HP:a:i:t=pia	!	!	!	!	!	!
!	!	!	!	!	!LO:DY:a	!	!	!LO:TX:a:t=P:problem:laseczka z prawej strony	!	!	!
4FF/	.	8.a/L	.	8.ff\L	p	4a\	in-	4ff\	In-	2.ryy	2.ryy
.	.	16a/K	.	16cc\K	.	.	.	.	.	.	.
*	*	*	*	*	*	*2\right	*	*2\right	*	*	*
4F\	.	8.a/	.	8.cc\	.	2a\	-Car-	2cc\	-car-	.	.
.	.	16a/K	.	16cc\	.	.	.	.	.	.	.
4F\	.	8.a/	.	8.cc\	.	.	.	.	.	.	.
.	.	16a/Jk	.	16cc\Jk	.	.	.	.	.	.	.
=18	=18	=18	=18	=18	=18	=18	=18	=18	=18	=18	=18
4F\	.	8.b-/L	.	8.dd\L	.	8.b-\	-na-	8.dd\	-na-	2.ryy	2.ryy
.	.	16a/K	.	16cc\K	.	16a\	-tus	16cc\	-tus	.	.
4F\	.	8.a/	.	8.cc\	.	4a\	eſt	4cc\	est	.	.
.	.	16a/K	.	16cc\Jk	.	.	.	.	.	.	.
4F\	.	8.a/	.	8.cc\L	.	8r	.	8r	.	.	.
.	.	.	.	.	.	8a\	de	8cc\	de	.	.
.	.	16a/Jk	.	16cc\Jk	.	.	.	.	.	.	.
=19	=19	=19	=19	=19	=19	=19	=19	=19	=19	=19	=19
4E\	.	8.g/L	.	8b-/L	.	4g/	Spi-	4b-\	Spi-	2.ryy	2.ryy
!	!	!	!	!LO:TX:a:t=P:problem:jedna ósemka w źródle	!	!	!	!	!	!	!
!	!	!	!	!LO:N:vis=8	!	!	!	!	!	!	!
.	.	.	.	16b-/L	.	.	.	.	.	.	.
.	.	16g/Jk	.	16b-/JJ	.	.	.	.	.	.	.
4C\	.	8.ee\L	.	8.gg\L	.	8.ee\L	-ri-	8.gg\L	-ri-	.	.
.	.	16cc\K	.	16ee\Jk	.	16cc\Jk	.	16ee\Jk	.	.	.
!	!	!	!	!LO:LB:g=original	!	!	!	!	!	!	!
4E\	.	8.a\	.	8.cc\L	.	8.a\L	-tu	8.cc\L	-tu	.	.
.	.	16g\Jk	.	16b-\Jk	.	16g\Jk	.	16b-\Jk	.	.	.
!	!	!	!	!	!	!LO:LB:g=original	!	!	!	!	!
=20	=20	=20	=20	=20	=20	=20	=20	=20	=20	=20	=20
4F\	.	8.g/L	.	8.b-/L	.	8.g/	ſan-	8.b-\	San-	2.ryy	2.ryy
.	.	16f/K	.	16a/K	.	16f/	-cto	16a\	-cto	.	.
4F\	.	8.f/	.	8.a/	.	4f/	.	4a\	.	.	.
.	.	16f/K	.	16a/K	.	.	.	.	.	.	.
4F\	.	8.f/	.	8.a/	.	8r	.	8r	.	.	.
.	.	.	.	.	.	16a\	Ex	16cc\	ex	.	.
.	.	16a/Jk	.	16cc/Jk	.	16a\	ma-	16cc\	Ma-	.	.
=21	=21	=21	=21	=21	=21	=21	=21	=21	=21	=21	=21
!	!	!LO:SIC:s=8.bn	!	!	!	!	!	!	!	!	!
4G\	.	8.b-/L	.	8.dd\L	.	2bn\	-ri-	2dd\	-ri-	2.ryy	2.ryy
!	!	!LO:SIC:s=16bn	!	!	!	!	!	!	!	!	!
.	.	16b-/K	.	16dd\K	.	.	.	.	.	.	.
!	!	!LO:SIC:s=8.bn	!	!	!	!	!	!	!	!	!
4F\	2	8.b-/	.	8.dd\	.	.	.	.	.	.	.
!	!	!LO:SIC:s=16bn	!	!	!	!	!	!	!	!	!
.	.	16b-/K	.	16dd\	.	.	.	.	.	.	.
!	!	!LO:SIC:s=8.bn	!	!	!	!	!	!	!	!	!
4F\	.	8.b-/	.	8.dd\	.	4b\	-a	4dd\	-a	.	.
!	!	!LO:SIC:s=16bn	!	!	!	!	!	!	!	!	!
.	.	16b-/Jk	.	16dd\Jk	.	.	.	.	.	.	.
=22	=22	=22	=22	=22	=22	=22	=22	=22	=22	=22	=22
4E\	6	8.g/L	.	8.cc\L	.	8.g/	Vir-	8.cc\	Vir-	2.ryy	2.ryy
.	.	16g/K	.	16bn\Jk	.	16g/	-gi-	16bn\	-gi-	.	.
4E\	.	8.g/	.	8.cc\L	.	4g/	-ne	4cc\	-ne	.	.
.	.	16g/K	.	16cc\K	.	.	.	.	.	.	.
4E\	.	8.g/	.	8.cc\	.	8r	.	8r	.	.	.
!	!	!	!	!	!	!	!	!LO:TX:t=P:problem:w takcie jest za mało wartości rytmicznych w stosunku do metrum	!	!	!
!	!	!	!	!	!	!	!	!LO:N:vis=16	!	!	!
.	.	.	.	.	.	8g/	Ex	8cc\	ex	.	.
.	.	16g/Jk	.	16cc\Jk	.	.	.	.	.	.	.
!	!	!	!	!	!	!	!	!LO:LB:g=original	!	!	!
=23	=23	=23	=23	=23	=23	=23	=23	=23	=23	=23	=23
4F\	.	16f/LL	.	16a/LL	.	4f/	Ma-	4a\	Ma-	2.ryy	2.ryy
.	.	16f/	.	16a/	.	.	.	.	.	.	.
.	.	16f/	.	16a/	.	.	.	.	.	.	.
.	.	16f/JJ	.	16a/JJ	.	.	.	.	.	.	.
4F\	.	16dd\LL	.	16ff\LL	.	4dd\	-ri-	4ff\	-ri-	.	.
.	.	16dd\	.	16ff\	.	.	.	.	.	.	.
.	.	16dd\	.	16ff\	.	.	.	.	.	.	.
.	.	16dd\JJ	.	16ff\JJ	.	.	.	.	.	.	.
!	!	!LO:LB:g=original	!	!	!	!	!	!	!	!	!
4F#X\	.	16cc\LL	.	16ee\LL	.	4cc\	-a	4ee\	-a	.	.
.	.	16cc\	.	16ee\	.	.	.	.	.	.	.
.	.	16cc\	.	16ee\	.	.	.	.	.	.	.
.	.	16cc\JJ	.	16ee\JJ	.	.	.	.	.	.	.
=24	=24	=24	=24	=24	=24	=24	=24	=24	=24	=24	=24
4G\	.	8.cc\L	.	8.ee\L	.	8.cc\	Vir-	8.ee\	Vir-	2.ryy	2.ryy
.	.	16bn\K	.	16dd\K	.	16bn\	-gi-	16dd\	-gi-	.	.
4GG/	.	8.b\	.	8.dd\	.	4b\	-ne	4dd\	-ne	.	.
.	.	16b\K	.	16dd\K	.	.	.	.	.	.	.
4GG/	.	8.b\	.	8.dd\	.	8r	.	8r	.	.	.
.	.	.	.	.	.	8cc\	Ex	8ee\	Ex	.	.
.	.	16cc\Jk	.	16ee\Jk	.	.	.	.	.	.	.
=25	=25	=25	=25	=25	=25	=25	=25	=25	=25	=25	=25
4GG/	.	8.cc\L	.	8.ee\L	.	8.cc\L	ma-	8.ee\L	Ma-	2.ryy	2.ryy
.	.	16bn\K	.	16dd\K	.	16bn\Jk	.	16dd\Jk	.	.	.
4GG/	.	8.dd\	.	8.ff\	.	8.dd\L	-ri-	8.ff\L	-ri-	.	.
.	.	16cc\K	.	16ee\K	.	16cc\Jk	.	16ee\Jk	.	.	.
4GG/	.	8.dd\	.	8.ff\	.	8.dd\L	-a	8.ff\L	-a	.	.
.	.	16cc\Jk	.	16ee\Jk	.	16cc\Jk	.	16ee\Jk	.	.	.
!LO:LB:g=original	!	!	!	!	!	!LO:PB:g=original	!	!	!	!	!
=26	=26	=26	=26	=26	=26	=26	=26	=26	=26	=26	=26
4GG/	.	8.cc\L	.	8.ee\L	.	8.cc\	vir-	8.ee\	Vir-	2.ryy	2.ryy
.	.	16bn\K	.	16dd\K	.	16bn\	-gi-	16dd\	-gi-	.	.
4GG/	.	8.b\	.	8.dd\	.	4b\	-ne	4dd\	-ne	.	.
.	.	16b\Jk	.	16dd\K	.	.	.	.	.	.	.
4GG/	.	8.b/L	.	8.dd\	.	8r	.	8r	.	.	.
.	.	.	.	.	.	8e/	ex	8cc\	Ex	.	.
.	.	16c/Jk	.	16e\Jk	.	.	.	.	.	.	.
=27	=27	=27	=27	=27	=27	=27	=27	=27	=27	=27	=27
4GG/	.	8.c/L	.	8.e/L	.	8.e/L	Ma-	8.cc\L	Ma-	2.ryy	2.ryy
.	.	16Bn/K	.	16d/K	.	16d/Jk	.	16bn\Jk	.	.	.
4GG/	.	8.d/	.	8.f/	.	8.f/L	-ri-	8.dd\L	-ri-	.	.
.	.	16c/K	.	16e/Jk	.	16e/Jk	.	16cc\Jk	.	.	.
!	!	!	!	!LO:LB:g=original	!	!	!	!	!	!	!
4GG/	.	8.d/	.	8.f/L	.	8.f/L	-a	8.dd\L	-a	.	.
.	.	16c/Jk	.	16e/Jk	.	16e/Jk	.	16cc\Jk	.	.	.
=28	=28	=28	=28	=28	=28	=28	=28	=28	=28	=28	=28
!LO:TX:a:t=P:problem:nadmiarowy takt w vl II	!	!LO:TX:a:t=P:problem:zbędne powtórzenie t. 28	!	!LO:TX:a:t=P:problem:nadmiarowy takt w vl II	!	!LO:TX:a:t=P:problem:nadmiarowy takt w vl II	!	!LO:TX:a:t=P:problem:nadmiarowy takt w vl II. W partii sopranu dwie ukośne kreseczki	!	!	!
2.ryy	.	8.c/L	.	2.ryy	.	2.ryy	.	2.ryy	.	2.ryy	2.ryy
.	.	16Bn/K	.	.	.	.	.	.	.	.	.
.	.	8.d/	.	.	.	.	.	.	.	.	.
.	.	16c/K	.	.	.	.	.	.	.	.	.
.	.	8.d/	.	.	.	.	.	.	.	.	.
.	.	16c/Jk	.	.	.	.	.	.	.	.	.
!	!	!	!	!	!	!	!	!LO:LB:g=original	!	!	!
=29	=29	=29	=29	=29	=29	=29	=29	=29	=29	=29	=29
4GG/	.	8.c/L	.	8.e/L	.	8.e/	Vir-	8.cc\	Vir-	2.ryy	2.ryy
.	.	16Bn/K	.	16d/K	.	16d/	-gi-	16bn\	-gi-	.	.
4G\	.	8.B/	.	8.d/	.	4d/	-ne	4b\	-ne	.	.
.	.	16B/K	.	16d/K	.	.	.	.	.	.	.
4E\	.	8.B/	.	8.d/	.	8r	.	8r	.	.	.
.	.	.	.	.	.	8e/	et	8g/	et	.	.
.	.	16e/Jk	.	16g/Jk	.	.	.	.	.	.	.
=30	=30	=30	=30	=30	=30	=30	=30	=30	=30	=30	=30
4F\	.	16f/LL	.	16a/LL	.	4f/	ho-	4a\	ho-	2.ryy	2.ryy
.	.	16f/	.	16a/	.	.	.	.	.	.	.
.	.	16f/	.	16a/	.	.	.	.	.	.	.
.	.	16f/JJ	.	16a/JJ	.	.	.	.	.	.	.
!	!	!LO:LB:g=original	!	!	!	!	!	!	!	!	!
4E\	.	16g/LL	.	16b-X/LL	.	4g/	-mo	4b-X\	-mo	.	.
.	.	16g/	.	16b-/	.	.	.	.	.	.	.
.	.	16g/	.	16b-/	.	.	.	.	.	.	.
.	.	16g/JJ	.	16b-/JJ	.	.	.	.	.	.	.
4D\	.	16f/LL	.	16bn/LL	.	4f/	Fa-	4bn\	Fa-	.	.
.	.	16f/	.	16b/	.	.	.	.	.	.	.
.	.	16f/	.	16b/	.	.	.	.	.	.	.
.	.	16f/JJ	.	16b/JJ	.	.	.	.	.	.	.
=31	=31	=31	=31	=31	=31	=31	=31	=31	=31	=31	=31
4C\	.	16e/LL	.	16cc\LL	.	4e/	.	4cc\	.	2.ryy	2.ryy
.	.	16e/	.	16cc\	.	.	.	.	.	.	.
.	.	16e/	.	16cc\	.	.	.	.	.	.	.
.	.	16e/JJ	.	16cc\JJ	.	.	.	.	.	.	.
4E\	.	16g/LL	.	16cc#X\LL	.	4g/	.	4cc#X\	.	.	.
.	.	16g/	.	16cc#\	.	.	.	.	.	.	.
.	.	16g/	.	16cc#\	.	.	.	.	.	.	.
.	.	16g/JJ	.	16cc#\JJ	.	.	.	.	.	.	.
4F\	.	16a/LL	.	16dd\LL	.	4a/	.	4dd\	.	.	.
.	.	16a/	.	16dd\	.	.	.	.	.	.	.
.	.	16a/	.	16dd\	.	.	.	.	.	.	.
.	.	16a/JJ	.	16dd\JJ	.	.	.	.	.	.	.
=32	=32	=32	=32	=32	=32	=32	=32	=32	=32	=32	=32
8.F\L	.	8.a/L	.	8.dd\L	.	8.a/L	.	16dd\LL	.	2.ryy	2.ryy
.	.	.	.	.	.	.	.	16ff\	.	.	.
.	.	.	.	.	.	.	.	16dd\	.	.	.
16E\Jk	.	16g/Jk	.	16cc\Jk	.	16g/Jk	.	16ccn\JJ	.	.	.
!	!	!	!	!LO:TX:a:t=P:problem:niejednoznaczny zapis - ozdobnik nad nutą?	!	!	!	!	!	!	!
4G\	.	4e/	.	4cc\	.	4e/	.	4cc\	.	.	.
4GG/	.	4d/	.	4bn\	.	4d/	-ctus	4bn\	-ctus	.	.
!	!	!	!	!	!	!LO:LB:g=original	!	!	!	!	!
=33	=33	=33	=33	=33	=33	=33	=33	=33	=33	=33	=33
!	!	!LO:TX:a:t=P:problem:mixed beam	!LO:HP:a:i:t=For:	!	!	!	!	!	!	!	!
!	!	!	!LO:DY:a	!	!LO:DY:a	!	!	!	!	!	!
!	!	!	!	!	!LO:HP:a:i:t=For	!	!	!	!	!	!
4C/	.	8.e/L	f	8.cc\L	f	4e/	est	4cc\	eſt	2.ryy	2.ryy
.	.	16cc\K	.	16ee\K	.	.	.	.	.	.	.
4BB-X/	2	8.cc\	.	8.ee\	.	4r	.	4r	.	.	.
.	.	16cc\K	.	16ee\K	.	.	.	.	.	.	.
4BB-/	.	8.cc\	.	8.ee\	.	4r	.	4r	.	.	.
.	.	16cc\Jk	.	16ee\Jk	.	.	.	.	.	.	.
=34	=34	=34	=34	=34	=34	=34	=34	=34	=34	=34	=34
!	!	!	!	!	!	!LO:TX:t=P:problem:łuk nad "5"	!	!LO:TX:t=P:problem:łuk nad "5"	!	!	!
!	!	!	!	!	!	!LO:N:vis=00	!	!LO:N:vis=00	!	!	!
!	!	!	!	!	!	!LO:TX:a:t=5	!	!LO:TX:a:t=5	!	!	!
4AA/	.	8.cc\L	.	8.ff\L	.	0.r	.	0.r	.	2.ryy	2.ryy
.	.	16a\K	.	16cc\K	.	.	.	.	.	.	.
4FF/	.	8.a\	.	8.cc\	.	.	.	.	.	.	.
.	.	16a\K	.	16cc\K	.	.	.	.	.	.	.
4FF/	.	8.a\	.	8.cc\	.	.	.	.	.	.	.
.	.	16a\Jk	.	16cc\Jk	.	.	.	.	.	.	.
=35	=35	=35	=35	=35	=35	=35	=35	=35	=35	=35	=35
4FF/	4	8.b-/L	.	8.dd\L	.	.	.	.	.	2.ryy	2.ryy
.	.	16b-/K	.	16dd\K	.	.	.	.	.	.	.
4FF/	.	8.b-/	.	8.dd\	.	.	.	.	.	.	.
.	.	16b-/K	.	16dd\K	.	.	.	.	.	.	.
4FF/	.	8.b-/	.	8.dd\	.	.	.	.	.	.	.
.	.	16b-/Jk	.	16dd\Jk	.	.	.	.	.	.	.
=36	=36	=36	=36	=36	=36	=36	=36	=36	=36	=36	=36
4FF/	3	8.a/L	.	8.cc\L	.	.	.	.	.	2.ryy	2.ryy
.	.	16a/K	.	16cc\K	.	.	.	.	.	.	.
4FF/	.	8.a/	.	8.cc\	.	.	.	.	.	.	.
.	.	16a/	.	16cc\Jk	.	.	.	.	.	.	.
!	!	!	!	!LO:LB:g=original	!	!	!	!	!	!	!
4FF/	.	8.a/	.	8.cc\L	.	.	.	.	.	.	.
.	.	16a/Jk	.	16cc\Jk	.	.	.	.	.	.	.
!	!	!LO:LB:g=original	!	!	!	!	!	!	!	!	!
=37	=37	=37	=37	=37	=37	=37	=37	=37	=37	=37	=37
4C/	7	8.g/L	.	8.b-/L	.	.	.	.	.	2.ryy	2.ryy
.	.	16g/K	.	16b-/K	.	.	.	.	.	.	.
4C/	.	8.g/	.	8.b-/	.	.	.	.	.	.	.
.	.	16g/K	.	16b-/K	.	.	.	.	.	.	.
4C/	.	8.g/	.	8.b-/	.	.	.	.	.	.	.
.	.	16g/Jk	.	16b-/Jk	.	.	.	.	.	.	.
=38	=38	=38	=38	=38	=38	=38	=38	=38	=38	=38	=38
8FF/L	.	8f/L	.	16a/LL	.	2.r	.	2.r	.	2.ryy	2.ryy
.	.	.	.	16f/	.	.	.	.	.	.	.
8BB-/J	.	8d/J	.	16b-/	.	.	.	.	.	.	.
.	.	.	.	16g/JJ	.	.	.	.	.	.	.
4C/	.	4f/	.	4f/	.	.	.	.	.	.	.
!	!	!	!	!LO:TX:a:t=P:problem:niejednoznaczny zapis - ozdobnik nad nutą?	!	!	!	!	!	!	!
4CC/	.	4e/	.	4g/	.	.	.	.	.	.	.
=39	=39	=39	=39	=39	=39	=39	=39	=39	=39	=39	=39
8F\L	.	2f/	.	2f/	.	4r	.	4r	.	2.ryy	2.ryy
8C\J	.	.	.	.	.	.	.	.	.	.	.
4FF/	.	.	.	.	.	4r	.	4r	.	.	.
4r	.	8r	.	8r	.	[>4a\	cru-	4cc\	cru-	.	.
.	.	8a/	.	8cc\	.	.	.	.	.	.	.
!LO:LB:g=original	!	!	!	!	!	!	!	!	!	!	!
=40	=40	=40	=40	=40	=40	=40	=40	=40	=40	=40	=40
!	!	!	!LO:HP:a:i:t=pia:	!	!LO:HP:a:i:t=pia	!	!	!	!	!	!
!	!	!	!LO:DY:rj	!	!LO:DY:a	!	!	!	!	!	!
4F\	.	8.a/L	p	8.ff\L	p	4a\]	.	4ff\	.	2.ryy	2.ryy
.	.	16a/K	.	16cc\K	.	.	.	.	.	.	.
4F\	.	8.a/	.	8.cc\	.	2a\	-ci-	2cc\	-ci-	.	.
.	.	16a/K	.	16cc\K	.	.	.	.	.	.	.
4F\	.	8.a/	.	8.cc\	.	.	.	.	.	.	.
.	.	16a/Jk	.	16cc\Jk	.	.	.	.	.	.	.
=41	=41	=41	=41	=41	=41	=41	=41	=41	=41	=41	=41
4F\	-4	8.b-/L	.	8.dd-X\L	.	2b-\	-Fi-	2dd-X\	-fi-	2.ryy	2.ryy
.	.	16b-/K	.	16dd-\K	.	.	.	.	.	.	.
4F\	3	8.b-/	.	8.dd-\	.	.	.	.	.	.	.
.	.	16b-/K	.	16dd-\K	.	.	.	.	.	.	.
4F\	.	8.b-/	.	8.dd-\	.	4b-\	-xus	4dd-\	-xus	.	.
.	.	16b-/Jk	.	16dd-\Jk	.	.	.	.	.	.	.
!	!	!	!	!	!	!	!	!LO:LB:g=original	!	!	!
=42	=42	=42	=42	=42	=42	=42	=42	=42	=42	=42	=42
4F\	.	8.a/L	.	8.cc\L	.	4.a\	e-	4.cc\	e-	2.ryy	2.ryy
.	.	16a/K	.	16cc\K	.	.	.	.	.	.	.
4F\	.	8.a/	.	8.cc\	.	.	.	.	.	.	.
.	.	.	.	.	.	8a\	-ti-	8cc\	-ti-	.	.
.	.	16a/K	.	16cc\K	.	.	.	.	.	.	.
4F\	.	8.a/	.	8.cc\	.	8a\	-am	8cc\	-am	.	.
.	.	.	.	.	.	8a\	pro	8cc\	pro	.	.
.	.	16a/Jk	.	16cc\Jk	.	.	.	.	.	.	.
=43	=43	=43	=43	=43	=43	=43	=43	=43	=43	=43	=43
4F\	.	8.b-/L	.	8.dd-X\L	.	8.b-\L	no-	8.dd-X\L	no-	2.ryy	2.ryy
.	.	16a/K	.	16cc\K	.	16a\Jk	.	16cc\Jk	.	.	.
4F\	.	8.a/	.	8.cc\	.	4a\	-bis	4cc\	-bis	.	.
.	.	16a/K	.	16cc\K	.	.	.	.	.	.	.
4F\	.	8.a/	.	8.cc\	.	8r	.	8r	.	.	.
.	.	.	.	.	.	8a\	sub	8cc\	sub	.	.
.	.	16a/Jk	.	16cc\Jk	.	.	.	.	.	.	.
=44	=44	=44	=44	=44	=44	=44	=44	=44	=44	=44	=44
4F\	n2	8bn/L	.	8.ddn\L	.	8.bn\	Pon-	16bn\LL	Pon-	2.ryy	2.ryy
.	.	.	.	.	.	.	.	16ff\	.	.	.
.	.	8b/	.	.	.	.	.	16dd\	.	.	.
.	.	.	.	16dd\K	.	16b\	-ti-	16b\JJ	.	.	.
4F\	.	8b/	.	8.dd\	.	4b\	-o	16b\LL	-ti-	.	.
.	.	.	.	.	.	.	.	16ff\	.	.	.
.	.	8b/	.	.	.	.	.	16dd\	-o	.	.
.	.	.	.	16dd\K	.	.	.	16b\JJ	.	.	.
4F\	.	8b/	.	8.dd\	.	4b\	pi-	16b\LL	Pi-	.	.
.	.	.	.	.	.	.	.	16ff\	.	.	.
.	.	8b/J	.	.	.	.	.	16dd\	.	.	.
.	.	.	.	16dd\Jk	.	.	.	16b\JJ	.	.	.
!	!	!LO:LB:g=original	!	!	!	!	!	!	!	!	!
=45	=45	=45	=45	=45	=45	=45	=45	=45	=45	=45	=45
4E\	6	8.g/L	.	8.cc\L	.	4g/	-la-	8.cc\L	-la-	2.ryy	2.ryy
.	.	16g/K	.	16bn\K	.	.	.	16bn\Jk	.	.	.
!	!	!	!	!LO:TX:a:t=P:problem:niejednoznaczny zapis wysokości	!	!	!	!	!	!	!
4E\	.	8.g/	.	8.cc\	.	4g/	-to	4cc\	-to	.	.
!	!	!	!	!LO:TX:a:t=P:problem:niejednoznaczny zapis wysokości	!	!	!	!	!	!	!
.	.	16g/K	.	16cc\K	.	.	.	.	.	.	.
!	!	!	!	!	!	!LO:LB:g=original	!	!	!	!	!
4E\	.	8.g/	.	8.cc\	.	8r	.	8r	.	.	.
.	.	.	.	.	.	8a\	ſub	8cc\	Sub	.	.
.	.	16g/Jk	.	16cc\Jk	.	.	.	.	.	.	.
!	!	!	!	!LO:LB:g=original	!	!	!	!	!	!	!
=46	=46	=46	=46	=46	=46	=46	=46	=46	=46	=46	=46
4E-X\	2	8a/L	.	8.cc\L	.	8.a\	Pon-	16a\LL	Pon-	2.ryy	2.ryy
.	.	.	.	.	.	.	.	16ee-X\	.	.	.
.	.	8a/	.	.	.	.	.	16cc\	.	.	.
.	.	.	.	16cc\K	.	16a\	-ti-	16a\JJ	.	.	.
4E-\	.	8a/	.	8.cc\	.	4a\	-o	16a\LL	-ti-	.	.
.	.	.	.	.	.	.	.	16ee-\	.	.	.
.	.	8a/	.	.	.	.	.	16cc\	-o	.	.
.	.	.	.	16cc\K	.	.	.	16a\JJ	.	.	.
4E-\	.	8a/	.	8.cc\	.	4a\	Pi-	16a\LL	Pi-	.	.
.	.	.	.	.	.	.	.	16ee-\	.	.	.
.	.	8a/J	.	.	.	.	.	16cc\	.	.	.
.	.	.	.	16cc\Jk	.	.	.	16a\JJ	.	.	.
!	!	!	!	!	!	!	!	!LO:LB:g=original	!	!	!
=47	=47	=47	=47	=47	=47	=47	=47	=47	=47	=47	=47
4D\	6	8.f/L	.	8.b-X/L	.	4f/	-la-	8.b-\L	-la-	2.ryy	2.ryy
.	.	16f/K	.	16a/K	.	.	.	16a\Jk	.	.	.
4D\	.	8.f/	.	8.b-/	.	4f/	-to	4b-\	-to	.	.
.	.	16f/K	.	16b-/K	.	.	.	.	.	.	.
4D\	.	8.f/	.	8.b-/	.	8r	.	8r	.	.	.
.	.	.	.	.	.	8b-\	Pas-	8dd\	paſ-	.	.
.	.	16b-/Jk	.	16dd/Jk	.	.	.	.	.	.	.
=48	=48	=48	=48	=48	=48	=48	=48	=48	=48	=48	=48
4BB-/	.	4d/	.	8.dd\L	.	8.b-\L	.	8.dd\L	.	2.ryy	2.ryy
.	.	.	.	16cc\K	.	16a\K	.	16cc\K	.	.	.
4BB-/	.	4d/	.	8.b-\	.	8.g\	.	8.b-\	.	.	.
.	.	.	.	16a\K	.	16f\K	.	16a\K	.	.	.
4BBn/	.	4d/	.	8.g\	.	8.e\	.	8.g\	.	.	.
.	.	.	.	16f\Jk	.	16d\Jk	.	16f\Jk	.	.	.
=49	=49	=49	=49	=49	=49	=49	=49	=49	=49	=49	=49
4C/	.	8.f/L	.	8.a/L	.	8.f/L	-ſus	8.a\L	-sus	2.ryy	2.ryy
.	.	16e/K	.	16g/K	.	16e/Jk	.	16g\Jk	.	.	.
4C/	.	8.e/	.	8.g/	.	4e/	eſt	4g/	est	.	.
.	.	16e/Jk	.	16g/Jk	.	.	.	.	.	.	.
!	!	!LO:TX:a:t=P:problem:mixed beam	!	!LO:TX:a:t=P:problem:mixed beam	!	!	!	!	!	!	!
4C/	.	8.f/L	.	8.f/L	.	8r	.	8r	.	.	.
.	.	.	.	.	.	8ff\	Pas-	8ff\	paſ-	.	.
.	.	16ff\Jk	.	16aa\Jk	.	.	.	.	.	.	.
=50	=50	=50	=50	=50	=50	=50	=50	=50	=50	=50	=50
4C/	.	8.ff\L	.	8.aa\L	.	8.a\L	.	8.ff\L	.	2.ryy	2.ryy
.	.	16ee\Jk	.	16gg\K	.	16g\K	.	16ee\K	.	.	.
4C/	.	8.gg\L	.	8.bb-\	.	8.b-\	.	8.gg\	.	.	.
.	.	16ff\K	.	16aa\K	.	16a\K	.	16ff\K	.	.	.
4C/	.	8.gg\	.	8.bb-\	.	8.b-\	.	8.gg\	.	.	.
.	.	16ff\Jk	.	16aa\Jk	.	16a\Jk	.	16ff\Jk	.	.	.
=51	=51	=51	=51	=51	=51	=51	=51	=51	=51	=51	=51
4C/	.	8.ff\L	.	8.aa\L	.	8.a\L	-ſus	8.ff\L	-sus	2.ryy	2.ryy
.	.	16ee\K	.	16gg\	.	16g\Jk	.	16ee\Jk	.	.	.
4C/	.	8.ee\	.	8.gg\	.	4g/	est	4ee\	est	.	.
.	.	16ee\Jk	.	16gg\Jk	.	.	.	.	.	.	.
4C/	.	8.f/L	.	8.a/L	.	8r	.	8r	.	.	.
!	!	!	!	!	!	!LO:LB:g=original	!	!	!	!	!
.	.	.	.	.	.	8a\	pas-	8ff\	paſ-	.	.
.	.	16f/Jk	.	16a/Jk	.	.	.	.	.	.	.
=52	=52	=52	=52	=52	=52	=52	=52	=52	=52	=52	=52
4C/	.	8.f/L	.	8.a/L	.	8.a\L	.	8.ff\L	.	2.ryy	2.ryy
.	.	16e/Jk	.	16g/K	.	16g\K	.	16ee\K	.	.	.
4C/	.	8.g/L	.	8.b-/	.	8.b-\	.	8.gg\	.	.	.
.	.	16f/K	.	16a/K	.	16a\K	.	16ff\K	.	.	.
4C/	.	8.g/	.	8.b-/	.	8.b-\	.	8.gg\	.	.	.
.	.	16f/Jk	.	16a/Jk	.	16a\Jk	.	16ff\Jk	.	.	.
!	!	!LO:LB:g=original	!	!	!	!	!	!	!	!	!
=53	=53	=53	=53	=53	=53	=53	=53	=53	=53	=53	=53
4C/	.	8.f/L	.	8.a/L	.	8.a\L	-ſus	8.ff\L	-sus	2.ryy	2.ryy
.	.	16e/K	.	16g/K	.	16g\Jk	.	16ee\Jk	.	.	.
4C/	.	8.e/	.	8.g/	.	4g/	est	4ee\	est	.	.
.	.	16e/K	.	16g/Jk	.	.	.	.	.	.	.
4C/	.	8.e/	.	8.cc\L	.	8r	.	8r	.	.	.
.	.	.	.	.	.	8a\	et	8cc\	et	.	.
.	.	16a/Jk	.	16cc\Jk	.	.	.	.	.	.	.
!LO:LB:g=original	!	!	!	!	!	!	!	!LO:LB:g=original	!	!	!
=54	=54	=54	=54	=54	=54	=54	=54	=54	=54	=54	=54
4F\	-6	8.b-/L	.	8.dd-X\L	.	2.b-\	ſe-	2.dd-X\	se-	2.ryy	2.ryy
.	.	16b-/K	.	16dd-\K	.	.	.	.	.	.	.
4F\	.	8.b-/	.	8.dd-\	.	.	.	.	.	.	.
.	.	16b-/K	.	16dd-\Jk	.	.	.	.	.	.	.
!	!	!	!	!LO:PB:g=original	!	!	!	!	!	!	!
4F\	.	8.b-/	.	8.dd-X\L	.	.	.	.	.	.	.
.	.	16b-/Jk	.	16dd-\Jk	.	.	.	.	.	.	.
=55	=55	=55	=55	=55	=55	=55	=55	=55	=55	=55	=55
4C/	2	8.g/L	.	8.een\L	.	2.g/	-pul-	2.een\	-pul-	2.ryy	2.ryy
.	.	16g/K	.	16ee\K	.	.	.	.	.	.	.
4C/	.	8.g/	.	8.ee\	.	.	.	.	.	.	.
.	.	16g/K	.	16ee\K	.	.	.	.	.	.	.
4C/	.	8.g/	.	8.ee\	.	.	.	.	.	.	.
.	.	16g/Jk	.	16ee\Jk	.	.	.	.	.	.	.
=56	=56	=56	=56	=56	=56	=56	=56	=56	=56	=56	=56
4FF/	.	8.a/L	.	8.ff\L	.	2.a\	.	2.ff\	.	2.ryy	2.ryy
.	.	16a/K	.	16ff\K	.	.	.	.	.	.	.
4FF/	.	8.a/	.	8.ff\	.	.	.	.	.	.	.
.	.	16a/K	.	16ff\K	.	.	.	.	.	.	.
4FF/	.	8.a/	.	8.ff\	.	.	.	.	.	.	.
.	.	16a/Jk	.	16ff\Jk	.	.	.	.	.	.	.
=57	=57	=57	=57	=57	=57	=57	=57	=57	=57	=57	=57
4BB-/	.	8.g/L	.	8.b-/L	.	2.g/	.	2.b-\	.	2.ryy	2.ryy
.	.	16g/K	.	16b-/K	.	.	.	.	.	.	.
4BB-/	.	8.g/	.	8.b-/	.	.	.	.	.	.	.
.	.	16g/K	.	16b-/K	.	.	.	.	.	.	.
4BB-/	.	8.g/	.	8.b-/	.	.	.	.	.	.	.
.	.	16g/Jk	.	16b-/Jk	.	.	.	.	.	.	.
=58	=58	=58	=58	=58	=58	=58	=58	=58	=58	=58	=58
4C/	4	8.f/L	.	8.a/L	.	2.f/	.	2.a\	.	2.ryy	2.ryy
.	.	16f/K	.	16a/K	.	.	.	.	.	.	.
4C/	.	8.f/	.	8.a/	.	.	.	.	.	.	.
.	.	16f/K	.	16a/K	.	.	.	.	.	.	.
4C/	.	8.f/	.	8.a/	.	.	.	.	.	.	.
.	.	16f/Jk	.	16a/Jk	.	.	.	.	.	.	.
=59	=59	=59	=59	=59	=59	=59	=59	=59	=59	=59	=59
4C/	3	8.e/L	.	8.g/L	.	2.e/	-tus	2.g/	-tus	2.ryy	2.ryy
.	.	16e/K	.	16g/K	.	.	.	.	.	.	.
4C/	.	8.e/	.	8.g/	.	.	.	.	.	.	.
.	.	16e/K	.	16g/K	.	.	.	.	.	.	.
4C/	.	8.e/	.	8.g/	.	.	.	.	.	.	.
.	.	16e/Jk	.	16g/Jk	.	.	.	.	.	.	.
!	!	!LO:LB:g=original	!	!	!	!	!	!	!	!	!
=60	=60	=60	=60	=60	=60	=60	=60	=60	=60	=60	=60
4FF/	.	8.A/L	.	8.f/L	.	2f/	est	2f/	est	2.ryy	2.ryy
.	.	16A/K	.	16f/K	.	.	.	.	.	.	.
4FF/	.	8.A/	.	8.f/	.	.	.	.	.	.	.
.	.	16A/K	.	16f/K	.	.	.	.	.	.	.
4FF/	.	8.a/	.	8.cc/	.	4r	.	4r	.	.	.
!	!	!	!	!	!LO:HP:a:i:t=For	!	!	!	!	!	!
!	!	!	!	!	!LO:DY:a	!	!	!	!	!	!
.	.	16a/Jk	.	16cc/Jk	f	.	.	.	.	.	.
=61	=61	=61	=61	=61	=61	=61	=61	=61	=61	=61	=61
!	!	!	!	!	!	!LO:TX:t=P:problem:łuk nad "4"	!	!LO:TX:t=P:problem:łuk nad "4"	!	!	!
!	!	!	!	!	!	!LO:N:vis=00	!	!LO:N:vis=00	!	!	!
!	!	!	!	!LO:TX:a:t=P:problem:triole oznaczone łukiem w tt. 61-62	!	!LO:TX:a:t=4	!	!LO:TX:a:t=4	!	!	!
4C/	.	4g/	.	(>12dd\L	.	0.r	.	0.r	.	2.ryy	2.ryy
.	.	.	.	12b-\	.	.	.	.	.	.	.
.	.	.	.	12g\J)	.	.	.	.	.	.	.
4C/	.	4f/	.	(<12a/L	.	.	.	.	.	.	.
.	.	.	.	12cc/	.	.	.	.	.	.	.
.	.	.	.	12ff/J)	.	.	.	.	.	.	.
4C/	.	4e/	.	(<12b-/L	.	.	.	.	.	.	.
.	.	.	.	12g/	.	.	.	.	.	.	.
.	.	.	.	12e/J)	.	.	.	.	.	.	.
=62	=62	=62	=62	=62	=62	=62	=62	=62	=62	=62	=62
4C/	.	4f/	.	(<12f/L	.	.	.	.	.	2.ryy	2.ryy
.	.	.	.	12a/	.	.	.	.	.	.	.
.	.	.	.	12cc/J)	.	.	.	.	.	.	.
4C/	.	4e/	.	(>12dd\L	.	.	.	.	.	.	.
.	.	.	.	12b-\	.	.	.	.	.	.	.
.	.	.	.	12g\J)	.	.	.	.	.	.	.
4C/	.	4f/	.	(<12a/L	.	.	.	.	.	.	.
.	.	.	.	12cc/	.	.	.	.	.	.	.
.	.	.	.	12ff/J)	.	.	.	.	.	.	.
!	!	!	!	!LO:LB:g=original	!	!	!	!	!	!	!
=63	=63	=63	=63	=63	=63	=63	=63	=63	=63	=63	=63
8FF/L	.	8f/L	.	16a/LL	.	.	.	.	.	2.ryy	2.ryy
.	.	.	.	16f/	.	.	.	.	.	.	.
8BB-/J	.	8d/J	.	16b-/	.	.	.	.	.	.	.
.	.	.	.	16g/JJ	.	.	.	.	.	.	.
4C/	.	4f/	.	4f/	.	.	.	.	.	.	.
4CC/	.	4e/	.	4gT/	.	.	.	.	.	.	.
=64	=64	=64	=64	=64	=64	=64	=64	=64	=64	=64	=64
!	!	!	!	!	!	!LO:TX:a:t=P:problem:znak końca i początku repetycji	!	!LO:TX:t=P:problem=znak repetycji na końcu	!	!	!
.	.	8qqe/	.	.	.	.	.	.	.	.	.
2FF/	.	2f/	.	2f/	.	.	.	.	.	2.ryy	2.ryy
!LO:TX:a:t=P:problem:znak końca i początku repetycji	!	!	!	!LO:TX:a:t=P:problem:podwójna kreska taktowa	!	!	!	!	!	!	!
4r	.	4r	.	8r	.	.	.	.	.	.	.
.	.	.	.	8ryy	.	.	.	.	.	.	.
==	==	==	==	==	==	==	==	==	==	==	==
*-	*-	*-	*-	*-	*-	*-	*-	*-	*-	*-	*-
!!!system-decoration: [(s1,s2)][(s3,s4)][(s5,s6)]s7
!!!RDF**kern: > = above
!!!RDF**kern: < = below
!!!ENC: Mateusz Mrugas
!!!END: 2020-09-30
!!!ENC: Andrzej Kubiczek
!!!END: 2020-04-16
